storage/app/icons/phosphoricons/fill/identification-badge-fill.svg

<svg xmlns="http://www.w3.org/2000/svg" fill="currentColor" viewBox="0 0 256 256"><path d="M200 24H56a16 16 0 0 0-16 16v176a16 16 0 0 0 16 16h144a16 16 0 0 0 16-16V40a16 16 0 0 0-16-16M96 48h64a8 8 0 0 1 0 16H96a8 8 0 0 1 0-16m84.81 150.4a8 8 0 0 1-11.21-1.6 52 52 0 0 0-83.2 0 8 8 0 1 1-12.8-9.6 67.9 67.9 0 0 1 27.4-21.69 40 40 0 1 1 53.94 0 67.9 67.9 0 0 1 27.46 21.69 8 8 0 0 1-1.59 11.2M152 136a24 24 0 1 1-24-24 24 24 0 0 1 24 24"/></svg>

<svg xmlns="http://www.w3.org/2000/svg" viewBox="0 0 256 256" fill="currentColor"><path d="M200,24H56A16,16,0,0,0,40,40V216a16,16,0,0,0,16,16H200a16,16,0,0,0,16-16V40A16,16,0,0,0,200,24ZM96,48h64a8,8,0,0,1,0,16H96a8,8,0,0,1,0-16Zm84.81,150.4a8,8,0,0,1-11.21-1.6,52,52,0,0,0-83.2,0,8,8,0,1,1-12.8-9.6A67.88,67.88,0,0,1,101,165.51a40,40,0,1,1,53.94,0A67.88,67.88,0,0,1,182.4,187.2,8,8,0,0,1,180.81,198.4ZM152,136a24,24,0,1,1-24-24A24,24,0,0,1,152,136Z"/></svg>
